X:16071
T: Struan Robertson's  Reel
R: reel
B: RSCDS 16-7(I)
Z: 1997 by John Chambers <jc:trillian.mit.edu>
M: C|
L: 1/8
%--------------------
K: ADor
|: e \
| "G"dega bgea | gedg BGdB | dega b/a/g a/g/e | "D"fd"G"gB "Am"A2A :|
|: d \
| "Am"ceAe cAec | "G"Bgdg BGdB | "Am"ceAe cAae | "D"fd"G"gB "Am"A2A :|
